X:1
T:Crescendo!
T:Per Lasson 1859 - 1883
%%score { ( 1 2 ) | ( 3 4 ) }
L:1/8
Q:1/4=78
M:2/4
K:Ab
V:1 treble nm="Piano"
V:2 treble 
V:3 bass 
V:4 bass 
V:1
"^(or faster if able)" EE =EE |!<(! FF!<)! F=E | .E"^,"!>(!E FE!>)! | E4 | EE =EE | %5
!<(! F!mf!F ^FF!<)! | GG GF | E3!mp! E |!mp! E!mp!D/G/!mf! c!mf!d |!mf! B2!mf! A2 | %10
!mf! D>!mf!G c!mf!B |!mf! A3!mf! c |!mf! c2!mf! c"^poco a poco crescendo"c |!mf! c2!mf! B2 | %14
!f!!mf! c>!f!c e!f!c |!f! c2!f! B2 | c>c cc | c3 A | A>c fe | %19
 e2 !breath!.d/[Q:1/4=60]"_molto ritard"[Q:1/4=60] A/B/=B/ | %20
[Q:1/4=78]"_a tempo"[Q:1/4=78] c2- c/c/_B/A/ | =e2-!f! ee | f2-!f! f_e | %23
 [Ee][Ee][Q:1/4=66] [=E=e][Q:1/4=20]!fermata![Ace]/!fermata![Gg]/ | %24
[Q:1/4=78] g2"^," .f/[Q:1/4=48]!f! !^!A/!^!B/!^!=B/ |[Q:1/4=78] c>!mf!c c_B/>A/ | %26
 A2- A/[Q:1/4=60]"_ritard".G/.[AB]/.[A=B]/ | %27
[Q:1/4=78]"_a tempo" c2-!ff! c/[Q:1/4=48] !fermata!c/!fermata!_B/!fermata!A/ |[Q:1/4=78] gf- f2 | %29
!ff! gf- f2 |!ff! gf gf | gf ga | b4 | b2[Q:1/4=60]!fff! =b2 | c'>[Q:1/4=50]!ff!e' e'/e'/=e'/g'/ | %35
!fff! g'>!fff!_g'[Q:1/4=36] !^!!fermata![fad'f']2 | %36
 !fermata!z[Q:1/4=48] !fermata![Aa]!fermata![Bb]!fermata![=B=b] | %37
 c'>!fff!e' =e'/[Q:1/4=40]f'/g'/[Q:1/4=20]!^!c''/ | !fermata![ac'e'a'][Q:1/4=82]"^a tempo" E =EE | %39
 FF F=E | EE FE | E4- | E4 |[Q:1/4=60] x (3E/-[Ec]/-[Q:1/4=30][Eca]/- !fermata![Eca]2 |] %44
V:2
 E/[A,C]/ E/[A,C]/ =E/[A,C]/ E/[A,C]/ | F/!mp![A,C]/ F/!mf![A,C]/ F/[A,C]/ =E/[A,C]/ | %2
 ._E/.[G,B,D]/ E/[G,B,D]/ F/!mp![G,B,D]/ E/!p![G,B,D]/ | x4 | %4
 E/[A,C]/ E/[A,C]/ =E/[A,C]/ E/[A,C]/ | F/[A,C]/ F/[A,C]/ ^F/[A,C]/ ^F/[A,C]/ | %6
 G/[B,E]/ G/[B,E]/ G/[=B,E]/ F/B,/4E/4 | [G,C]/!p![G,C]/ [G,C]/[G,C]/ [G,C]/[G,C]/ E/!p![G,C]/ | %8
 D/!p!!<(![G,D]/ [G,D]/[DE]/ [DEG]/!mp![DEG]/ [DEGB]/!mp![DEG]/!<)! | %9
 [CE]/!mp![CE]/ [CE]/[CE]/ [CE]/!mp![CE]/ [CE]/[CE]/ | %10
 G,/!mp![DE]/ [DE]/[DE]/ [DEG]/!mp![DEG]/ [DEG]/!mp![DEG]/ | %11
 [CE]/!mp![CE]/ [CE]/[CE]/ [CE]/[CE]/ [CE]/[CE]/ | %12
 [C_GA]/!mp![CGA]/[CGA]/[CGA]/ [CGA]/[CGA]/[CGA]/[CGA]/ | %13
 [DF]/!mp![DF]/[DF]/[DF]/ [DF]/[DF]/[DF]/[DF]/ | %14
 [C_GA]/[CGA]/[CGA]/[CGA]/ [GA]/!mf![GA]/[GA]/!mf![GA]/ | %15
 [DF]/!mf![DF]/[DF]/[DF]/ [DF]/!mf![DF]/[DF]/"^,".[DF]/ | %16
 [EA]/[EA]/[EA]/[EA]/ [=EA]/[EA]/[EA]/[EA]/ | [FA]/[FA]/[FA]/[FA]/ [FA]/[FA]/[CF]/[CF]/ | %18
 [C_G]/[CG]/[CG]/[GA]/ [GAc]/[GAc]/[GAc]/[GAc]/ | [FA]/!f![FA]/[FA]/[FA]/ .[FA]/ A/B/=B/ | %20
 [EA]/[EA]/[EA]/[EA]/ [EA]/E/E/E/ | [=E^G=d]/[EG]/[EG]/[EG]/ [EG]/[EG]/[EGd]/[EG]/ | %22
 [FB_d]/!mf![FBd]/[FBd]/[FBd]/ [FBd]/[FBd]/[_EB]/[EB]/ | E/[Ac]/E/[Ac]/ =E/[Ac]/E/A/ | %24
 [GA]/[GA]/[GA]/[GA]/ .[FA]/ A/B/=B/ | [EA]/!>(![EA]/[EA]/[EA]/ [=EA]/[EA]/E/!>)!E/ | %26
 [CF]/[CF]/[CF]/[CF]/ [CF]/.C/.=D/.D/ | [EA]/!f![EA]/[EA]/[EA]/ [EA]/ x/ x | %28
 [A=B=d]/[ABd]/[ABd]/[ABd]/- [ABd]/!f![ABd]/[ABd]/[ABd]/ | %29
 [A=B=d]/[ABd]/[ABd]/[ABd]/- [ABd]/!f![ABd]/[ABd]/[ABd]/ | %30
 [A=B=d]/[ABd]/[ABd]/[ABd]/ [ABd]/[ABd]/[ABd]/[ABd]/ | %31
 [A=B=d]/[ABd]/[ABd]/[ABd]/ [ABd]/[ABd]/[ABd]/!fff![ABd]/ | %32
{/[Gde]-} [Gde]/!mf![Gde]/[Gde]/[Gde]/ [Gde]/[Gde]/[Gde]/!fff![Gde]/ | %33
{/[Gde]-} [Gde]/!mf![Gde]/"^molto"[Gde]/[Gde]/ [Gde]/!mf!"^ritardando"[Gde]/[Gde]/[Gde]/ | %34
 [cea]/!f![cea]/[cea]/[eac']/ [eac']/[eac']/[=eac']/[gac']/ | [gac']/[gac']/[gac']/_g/ x2 | x4 | %37
 [cea]/!f![cea]/[cea]/[eac']/ [=eac']/f/[gbd']/c'/ | z E/[A,C]/ =E/[A,C]/ E/[A,C]/ | %39
 F/[A,C]/F/[A,C]/ F/[A,C]/ =E/[A,C]/ | E/[G,B,D]/ E/[G,B,D]/ F/[G,B,D]/ E/[G,B,D]/ | %41
 E/!pp![A,C]/ x x2 | x4 | x4 |] %44
V:3
!p! E,E, =E,E, | F,F, F,=E, | _E,E, F,E, | %3
!p! E,/!pp![I:staff -1][A,C]/[I:staff +1] E,,/[I:staff -1][A,C]/[I:staff +1] F,,/[I:staff -1][A,C]/!p![I:staff +1] E,,/[I:staff -1][A,C]/ | %4
!mp![I:staff +1] E,E, =E,E, | F,!<(!F, ^F,F,!<)! | G,G, G,G, | C,!ped! E,2!ped-up! C, | %8
 [B,,E,]!<(! E,CB,!<)! |!mf!!ped! A,,E,!ped-up!!ped! A,E,!ped-up! | E,, E,CB, | %11
!ped! A,,E, A,!ped-up!E, |!mf!!ped! A,,E, A,E,!ped-up! |!ped! D,,C!ped-up!!ped! B,2!ped-up! | %14
!f!!ped! A,,[E,A,] EC!ped-up! |!ped! D,,[D,C]!ped-up!!ped! [D,B,]>!ped-up!"^,".[D,B,] | %16
!p!!ped! E,,/!<(![E,A,C]/[E,A,C]/[E,A,C]/!ped-up!!ped! =E,,/[=E,A,C]/[E,A,C]/!<)![E,A,C]/!ped-up! | %17
!mp!!ped! F,,/C,/F,/A,/ C/[F,A,]/!ped-up!!ped![F,A,]/[F,A,]/!ped-up! | %18
!mf!!ped! [A,,,A,,]/E,/A,/C/ FE!ped!!ped-up! | %19
 [D,,-A,,-E]2!ped-up! !breath!.[D,,A,,D]/ A,/B,/=B,/ | %20
!mf!!ped! [E,,,E,,]/ [E,A,C]/[E,A,C]/[E,A,C]/ [E,A,C]/!ped-up![E,A,C]/[E,A,C]/[E,A,C]/ | %21
!f!!ped! [=E,,,=E,,]/!mf! [=E,=B,=D]/[E,B,D]/[E,B,D]/ [E,B,D]/[E,B,D]/[E,B,D]/[E,B,D]/!ped-up! | %22
!ped! [_E,,,_E,,]/ [E,=G,_D]/[E,G,D]/[E,G,D]/ [E,G,D]/[E,G,D]/!ped-up![E,G,D]/[E,G,D]/ | %23
!f!!ped! [A,,,A,,]/"^cresc." [E,A,C]/[E,A,C]/[E,A,C]/!ped-up! [=E,A,C]/[E,A,C]/!fermata![E,A,C]/!fermata![G,A,C]/ | %24
!ff!!ped! D,,/!f!D,/A,/D/!ped-up!"^," .[D,A,D]/ !^!A,/!^!B,/!^!=B,/ | %25
!ff!!ped! E,,/E,/A,/C/!ped-up!!ped! =E,,/=E,/A,/C/!ped-up! | %26
!mf!!ped!!<(! F,,/C,/F,/[F,A,]/ [F,A,]/!ped-up!!<)!!ff!.[F,A,]/.[F,B,]/.[_F,=B,]/ | %27
!ped! [E,A,C]/[E,A,C]/[E,A,C]/[E,A,C]/!ped-up! [E,A,C]/ !fermata!C/!fermata!_B,/!fermata!A,/ | %28
!ped! [A,=B,=DG][A,B,DF]!ped-up!!fff!!ped! [E,,,E,,]2!ped-up! | %29
!ped! [A,=B,=DG][A,B,DF]!ped-up!!fff!!ped! [E,,,E,,]2!ped-up! | %30
!ped! [A,=B,=DG][A,B,DF]!ped-up!!ped! [A,B,DG][A,B,DF]!ped-up! | %31
!ped! [A,=B,=DG][A,B,DF]!ped-up!!ped! [A,B,DG][A,B,DA]!ped-up! | %32
!fff!!ped! [E,,,E,,]!ff!!<(! [E,_B,_D]!<)!!fff!!>(![B,DG]!>)!!ff![E,B,D]!ped-up! | %33
!ped! [E,,,E,,]!f! [E,_B,_D]!fff!=B!f![E,B,D]!ped-up! | %34
!ff!!ped! [A,,,A,,]/ [E,A,CE]/[E,A,CE]/ [E,A,CE]/ [E,A,CE]/ [E,A,CE]/!ped-up![=E,A,C=E]/[G,A,CG]/ | %35
!ped! [D,,,D,,]/!f! D,/[A,DF]/A/[K:treble] !^!!fermata!d2!ped-up! | %36
[K:bass] !fermata!z!fff! !fermata!A,!fermata!B,!fermata!=B, | %37
!ped! [E,,,E,,]/ [E,A,C]/[CEA]/[EAc]/!ped-up!!ped! [E,,,E,,]/ [E,B,D]/[B,EG]/"^ten."!^!c/!ped-up! | %38
!ped! !fermata![A,,,A,,]!ped-up!!p! E,=E,E, | F,F, F,=E, | E,E, F,E, | %41
 E, E,,/[I:staff -1][E,A,C]/[I:staff +1] F,,/[I:staff -1][E,A,C]/[I:staff +1]E,,/[I:staff -1][E,A,C]/- | %42
!ped! [E,A,C]4 |!pp![I:staff +1] (3A,,/-[A,,E,]/-[A,,E,C]/-[A,,E,C]-!ped-up! [A,,E,C]2 |] %44
V:4
 A,,4- | A,,4 | B,,4 | .A,,E,, F,,E,, | A,,4- | A,,4 | [B,,G,]2 [=B,,G,]2 | x4 | x4 | x4 | x4 | %11
 x4 | x4 | x4 | x4 | x4 | x4 | x4 | x2 x x/ x/4!ff! [D,,A,,]/4- | x4 | x4 | x4 | x4 | x4 | x4 | %25
 x4 | x4 | x4 | x4 | x4 | x4 | x4 | x4 | x4 | x4 | x2[K:treble] x2 |[K:bass] x4 | x4 | x A,,3 | %39
 A,,4 | B,,4 | x E,, F,,E,, | [A,,,A,,]4 | x4 |] %44

